X:1
T:Upside Down
M:2/4
L:1/8
K:D
F/2-G/2| Ad Bd| A F2F/2-G/2| AA BA| E3F/2-G/2| Ad Bd| A F2 E| EA B^G|\
 A3| A| BB Bc| d A2 F| GB A^G| A3 A| d/2d/2 cB A| c E/2E/2 E F/2G/2|\
 AG FE| E3||

